X:1
T:Siciliana
T:Siciliana
T:Johann Sebastian Bach
C:Johann Sebastian Bach
%%score { 1 | 2 | 3 }
L:1/8
Q:1/4=80
M:3/4
K:F
V:1 treble nm="Varhany" snm="Varh."
V:2 bass 
V:3 bass 
V:1
 z6 |"^cantabile lamentando" A3 B A2 | A2 d2 B2 | G3 G3 | G3 A G2 | G2 f2 G2 | F3 E D2 | z6 || %8
 F2 G2 A2 | B3 c B2 | B2 g2 B2 | B2{cB} A4 || G2 A2 B2 | A2 G2 F2 | %14
 !tenuto!.E2 !tenuto!.G2 !breath!!tenuto!c2 | e2 d2 c2 | c3 d c2 | c2 f2 d2 | B3 B3 || B3 c B2 | %20
 B2 g2 B2 | A4 z2 || A3 B A2 | A2 d2 B2 | G3 G3 || G2 A2 B2 | A2 G2 F2 | G2 F3/2 E2 D/ | D6 |] %29
V:2
 F,2 E,2 D,2 | [D,F,]6 | [D,F,]6 | [D,E,]6 | [^C,E,]6 | A,,6 | [D,A,]6 | [D,F,]6 ||[K:treble] D6 | %9
 E6 | E6 | F6 ||[K:bass] B,6 | =B,6 | C6 | [G,B,]6 | [F,A,C]6 | [F,A,C]6 | [F,G,B,]6 || [E,G,B,]6 | %20
 [E,G,B,]6 | [F,A,C]4 E,2 || [D,F,A,]6 | [D,F,]6 | [D,E,]6 || [^C,E,]6 | [D,A,]6 | [A,,A,]6 | %28
 [D,F,]6 |] %29
V:3
 z6 | D,6 | D,6 | E,6 | ^C,6 | A,,6 | D,6 | D,,6 || D,6 | E,6 | E,6 | F,6 || B,,6 | =B,,6 | C,6 | %15
 G,,6 | F,,6 | F,,6 | G,,6 || E,6 | E,,6 | F,,4 E,,2 || D,6 | D,6 | E,6 || ^C,6 | D,6 | A,,6 | %28
 D,,6 |] %29

